app/_assets/images/distributions/dcos.svg

<svg height="36" viewBox="0 0 89 36" width="89" xmlns="http://www.w3.org/2000/svg"><g fill="#462785" fill-rule="evenodd"><path d="m86.9588804 14.5881362c0 .1715785.064342.2573678.2359205.2573678h.6219721c.1930258 0 .2573677-.0857893.2573677-.2573678v-1.0509183c0-1.6728904-.965129-3.0240711-4.3109099-3.0240711-3.367228 0-4.3109099 1.3511807-4.3109099 3.0240711v1.1581549c0 1.3511807.9865765 2.2090732 1.844469 2.5307829l3.9892001 1.5442065c.8364452.3217097 1.780127.8364452 1.780127 1.9946001v1.5227592c0 1.2868388-.8149978 2.1876259-3.3457808 2.1876259-2.5093356 0-3.3028861-.9007871-3.3028861-2.1876259v-.9865764c0-.1930258-.0857893-.278815-.2573679-.278815h-.6219721c-.1715784 0-.2573677.0857892-.2573677.278815v1.1152603c0 1.6728903 1.0509184 3.0240711 4.4610411 3.0240711 3.4101228 0 4.4395937-1.3511808 4.4395937-3.0240711v-1.8873635c0-1.4584173-1.0723655-2.2734152-2.1447313-2.6809141l-4.1178839-1.5656539c-.5790775-.2144731-1.3511808-.7292086-1.3511808-1.8230216v-.7935506c0-1.2868387.7077614-2.1876259 3.1956496-2.1876259 2.4878884 0 3.1956496.9007872 3.1956496 2.1876259zm-20.1183437-5.57630134c.0785545 0 .1257028.06123921.1047791.13874128l-4.7523905 17.60314206c-.0206867.0766248-.1022572.1387414-.1796924.1387414h-.8035191c-.0785547 0-.1257028-.0612393-.1047793-.1387414l4.7523907-17.60314206c.0206867-.07662469.1022571-.13874128.1796922-.13874128zm1.5878654 13.44746514c0 1.6728903 1.0294711 3.0240711 4.461041 3.0240711 3.4530175 0 4.5039359-1.3511808 4.5039359-3.0240711v-8.8791875c0-1.6728904-1.0509184-3.0240711-4.5039359-3.0240711-3.4315699 0-4.461041 1.3511807-4.461041 3.0240711zm7.8068219-.1715785c0 1.3082861-.8364452 2.2090732-3.3457809 2.2090732-2.4878882 0-3.3243334-.9007871-3.3243334-2.2090732v-8.5360305c0-1.3082861.8364452-2.2090732 3.3243334-2.2090732 2.5093357 0 3.3457809.9007871 3.3457809 2.2090732zm-16.6216675-1.6299958c0-.3860516-.1286839-.5361828-.4932881-.5361828h-1.7801271c-.3860515 0-.5361827.1501312-.5361827.5361828v.8149979c0 1.0723657-.7506559 1.6085485-2.1876259 1.6085485s-2.1661786-.5361828-2.1661786-1.6085485v-6.9060347c0-1.0723657.7292086-1.6085485 2.1661786-1.6085485s2.1876259.5361828 2.1876259 1.6085485v.5147355c0 .3860516.1501312.5361828.5361827.5361828h1.7801271c.3646042 0 .4932881-.1501312.4932881-.5361828v-1.029471c0-1.8015743-1.1581548-3.495912-5.0401184-3.495912-3.8819637 0-5.0401186 1.6943377-5.0401186 3.495912v7.9355057c0 1.8015743 1.1581549 3.495912 5.0401186 3.495912 3.8819636 0 5.0401184-1.6943377 5.0401184-3.495912zm-17.3294287 4.589725c3.8819636 0 5.2331443-1.6943377 5.2331443-3.495912v-7.5923488c0-1.8015742-1.3511807-3.495912-5.2331443-3.495912h-4.6755142c-.3860517 0-.5147355.1715786-.5147355.5576302v13.4689124c0 .3646044.1072365.5576302.4503935.5576302zm0-12.1820737c1.4584173 0 2.3377571.5361828 2.3377571 1.6085485v6.5628777c0 1.0723656-.8793398 1.6085484-2.3377571 1.6085484h-2.2948625v-9.7799746z"/><path d="m2.10932535 19.2026779-1.98031875 1.9803187c-.1117106.1117107-.1117106.2927934 0 .4045041l14.0184648 14.0184648c.1117107.1117106.2927934.1117106.4045041 0l14.0184648-14.0184648c.1117106-.1117107.1117106-.2927934 0-.4045041l-1.9803576-1.9803576-11.4313102 11.431438c-.4467723.4467723-1.1712758.4467723-1.6180481 0zm12.44438735 2.3735501c-.1127194-.1127195-.2952448-.1127195-.4079643 0l-3.9192899 3.9192899c-.1125764.1125764-.1125764.2952449 0 .4079643l3.9192899 3.9191469c.1127195.1127194.2952449.1127194.4079643 0l3.9192899-3.9191469c.1125765-.1127194.1125765-.2953879 0-.4079643zm5.0483441-5.0483441c-.1125764-.1127194-.2952449-.1127194-.4079643 0l-3.9191469 3.9191469c-.1127194.1127194-.1127194.2953879 0 .4079643l3.9191469 3.9192899c.1127194.1125764.2953879.1125764.4079643 0l3.9192899-3.9192899c.1127195-.1125764.1127195-.2952449 0-.4079643zm-6.1775413 3.9191469-3.91914681-3.9191469c-.11271946-.1127194-.29538793-.1127194-.40796434 0l-3.91928989 3.9191469c-.11271946.1127194-.11271946.2953879 0 .4079643l3.91928989 3.9192899c.11257641.1125764.29524488.1125764.40796434 0l3.91914681-3.9192899c.1127195-.1125764.1127195-.2952449 0-.4079643zm.7212329-12.11619741c.1127195.11271945.2952449.11271945.4079643 0l3.9192899-3.91914685c.1125765-.11271946.1125765-.29538792 0-.40796434l-3.9192899-3.91928989c-.1127194-.11257641-.2952448-.11257641-.4079643 0l-3.9192899 3.91928989c-.1125764.11257642-.1125764.29524488 0 .40796434zm1.1291972 1.85157441 3.9191469 3.9192899c.1127194.1127195.2953879.1127195.4079643 0l3.9192899-3.9192899c.1127195-.1125764.1127195-.29524484 0-.4079643l-3.9192899-3.91914685c-.1125764-.11271945-.2952449-.11271945-.4079643 0l-3.9191469 3.91914685c-.1127194.11271946-.1127194.2953879 0 .4079643zm-6.17754125 3.9192899c.11257641.1127195.29524488.1127195.40796434 0l3.91914681-3.9192899c.1127195-.1125764.1127195-.29524484 0-.4079643l-3.91914681-3.91914685c-.11271946-.11271945-.29538793-.11271945-.40796434 0l-3.91928989 3.91914685c-.11271946.11271946-.11271946.2953879 0 .4079643zm19.47228645 1.296989-3.9191469-3.9192899c-.1127194-.1125764-.2953879-.1125764-.4079643 0l-3.9192899 3.9192899c-.1125764.1125764-.1125764.2952449 0 .4079644l3.9192899 3.9191468c.1125764.1127195.2952449.1127195.4079643 0l3.9191469-3.9191468c.1127194-.1127195.1127194-.295388 0-.4079644zm-14.4239424-3.9192899-3.9192899 3.9192899c-.1125764.1125764-.1125764.2952449 0 .4079644l3.9192899 3.9191468c.1127195.1127195.2952449.1127195.4079643 0l3.9192899-3.9191468c.1125765-.1127195.1125765-.295388 0-.4079644l-3.9192899-3.9192899c-.1127194-.1125764-.2952448-.1125764-.4079643 0zm-5.76957693 4.3272543-3.91928989 3.9191468c-.11257641.1127195-.29524488.1127195-.40796433 0l-3.91914685-3.9191468c-.11271946-.1127195-.11271946-.295388 0-.4079644l3.91914685-3.9192899c.11271945-.1125764.29538792-.1125764.40796433 0l3.91928989 3.9192899c.11257642.1125764.11257642.2952449 0 .4079644z"/></g></svg>

<?xml version="1.0" encoding="UTF-8" standalone="no"?>
<svg width="89px" height="36px" viewBox="0 0 89 36" version="1.1" xmlns="http://www.w3.org/2000/svg" xmlns:xlink="http://www.w3.org/1999/xlink">
    <!-- Generator: Sketch 40 (33762) - http://www.bohemiancoding.com/sketch -->
    <title>logo-dcos</title>
    <desc>Created with Sketch.</desc>
    <defs></defs>
    <g id="Page-1" stroke="none" stroke-width="1" fill="none" fill-rule="evenodd">
        <g id="logo-dcos" fill="#462785">
            <path d="M86.9588804,14.5881362 C86.9588804,14.7597147 87.0232224,14.845504 87.1948009,14.845504 L87.816773,14.845504 C88.0097988,14.845504 88.0741407,14.7597147 88.0741407,14.5881362 L88.0741407,13.5372179 C88.0741407,11.8643275 87.1090117,10.5131468 83.7632308,10.5131468 C80.3960028,10.5131468 79.4523209,11.8643275 79.4523209,13.5372179 L79.4523209,14.6953728 C79.4523209,16.0465535 80.4388974,16.904446 81.2967899,17.2261557 L85.28599,18.7703622 C86.1224352,19.0920719 87.066117,19.6068074 87.066117,20.7649623 L87.066117,22.2877215 C87.066117,23.5745603 86.2511192,24.4753474 83.7203362,24.4753474 C81.2110006,24.4753474 80.4174501,23.5745603 80.4174501,22.2877215 L80.4174501,21.3011451 C80.4174501,21.1081193 80.3316608,21.0223301 80.1600822,21.0223301 L79.5381101,21.0223301 C79.3665317,21.0223301 79.2807424,21.1081193 79.2807424,21.3011451 L79.2807424,22.4164054 C79.2807424,24.0892957 80.3316608,25.4404765 83.7417835,25.4404765 C87.1519063,25.4404765 88.1813772,24.0892957 88.1813772,22.4164054 L88.1813772,20.5290419 C88.1813772,19.0706246 87.1090117,18.2556267 86.0366459,17.8481278 L81.918762,16.2824739 C81.3396845,16.0680008 80.5675812,15.5532653 80.5675812,14.4594523 L80.5675812,13.6659017 C80.5675812,12.379063 81.2753426,11.4782758 83.7632308,11.4782758 C86.2511192,11.4782758 86.9588804,12.379063 86.9588804,13.6659017 L86.9588804,14.5881362 L86.9588804,14.5881362 Z M66.8405367,9.01183486 C66.9190912,9.01183486 66.9662395,9.07307407 66.9453158,9.15057614 L62.1929253,26.7537182 C62.1722386,26.830343 62.0906681,26.8924596 62.0132329,26.8924596 L61.2097138,26.8924596 C61.1311591,26.8924596 61.084011,26.8312203 61.1049345,26.7537182 L65.8573252,9.15057614 C65.8780119,9.07395145 65.9595823,9.01183486 66.0370174,9.01183486 L66.8405367,9.01183486 L66.8405367,9.01183486 Z M68.4284021,22.4593 C68.4284021,24.1321903 69.4578732,25.4833711 72.8894431,25.4833711 C76.3424606,25.4833711 77.393379,24.1321903 77.393379,22.4593 L77.393379,13.5801125 C77.393379,11.9072221 76.3424606,10.5560414 72.8894431,10.5560414 C69.4578732,10.5560414 68.4284021,11.9072221 68.4284021,13.5801125 L68.4284021,22.4593 L68.4284021,22.4593 Z M76.235224,22.2877215 C76.235224,23.5960076 75.3987788,24.4967947 72.8894431,24.4967947 C70.4015549,24.4967947 69.5651097,23.5960076 69.5651097,22.2877215 L69.5651097,13.751691 C69.5651097,12.4434049 70.4015549,11.5426178 72.8894431,11.5426178 C75.3987788,11.5426178 76.235224,12.4434049 76.235224,13.751691 L76.235224,22.2877215 L76.235224,22.2877215 Z M59.6135565,20.6577257 C59.6135565,20.2716741 59.4848726,20.1215429 59.1202684,20.1215429 L57.3401413,20.1215429 C56.9540898,20.1215429 56.8039586,20.2716741 56.8039586,20.6577257 L56.8039586,21.4727236 C56.8039586,22.5450893 56.0533027,23.0812721 54.6163327,23.0812721 C53.1793627,23.0812721 52.4501541,22.5450893 52.4501541,21.4727236 L52.4501541,14.5666889 C52.4501541,13.4943232 53.1793627,12.9581404 54.6163327,12.9581404 C56.0533027,12.9581404 56.8039586,13.4943232 56.8039586,14.5666889 L56.8039586,15.0814244 C56.8039586,15.467476 56.9540898,15.6176072 57.3401413,15.6176072 L59.1202684,15.6176072 C59.4848726,15.6176072 59.6135565,15.467476 59.6135565,15.0814244 L59.6135565,14.0519534 C59.6135565,12.2503791 58.4554017,10.5560414 54.5734381,10.5560414 C50.6914744,10.5560414 49.5333195,12.2503791 49.5333195,14.0519534 L49.5333195,21.9874591 C49.5333195,23.7890334 50.6914744,25.4833711 54.5734381,25.4833711 C58.4554017,25.4833711 59.6135565,23.7890334 59.6135565,21.9874591 L59.6135565,20.6577257 L59.6135565,20.6577257 Z M42.2841278,25.2474507 C46.1660914,25.2474507 47.5172721,23.553113 47.5172721,21.7515387 L47.5172721,14.1591899 C47.5172721,12.3576157 46.1660914,10.6632779 42.2841278,10.6632779 L37.6086136,10.6632779 C37.2225619,10.6632779 37.0938781,10.8348565 37.0938781,11.2209081 L37.0938781,24.6898205 C37.0938781,25.0544249 37.2011146,25.2474507 37.5442716,25.2474507 L42.2841278,25.2474507 L42.2841278,25.2474507 Z M42.2841278,13.065377 C43.7425451,13.065377 44.6218849,13.6015598 44.6218849,14.6739255 L44.6218849,21.2368032 C44.6218849,22.3091688 43.7425451,22.8453516 42.2841278,22.8453516 L39.9892653,22.8453516 L39.9892653,13.065377 L42.2841278,13.065377 L42.2841278,13.065377 Z" id="Combined-Shape"></path>
            <path d="M2.10932535,19.2026779 L0.129006604,21.1829966 C0.0172960011,21.2947073 0.0172960011,21.47579 0.129006604,21.5875007 L14.1474714,35.6059655 C14.2591821,35.7176761 14.4402648,35.7176761 14.5519755,35.6059655 L28.5704403,21.5875007 C28.6821509,21.47579 28.6821509,21.2947073 28.5704403,21.1829966 L26.5900827,19.202639 L15.1587725,30.634077 C14.7120002,31.0808493 13.9874967,31.0808493 13.5407244,30.634077 L2.10932535,19.2026779 L2.10932535,19.2026779 L2.10932535,19.2026779 Z M14.5537127,21.576228 C14.4409933,21.4635085 14.2584679,21.4635085 14.1457484,21.576228 L10.2264585,25.4955179 C10.1138821,25.6080943 10.1138821,25.7907628 10.2264585,25.9034822 L14.1457484,29.8226291 C14.2584679,29.9353485 14.4409933,29.9353485 14.5537127,29.8226291 L18.4730026,25.9034822 C18.5855791,25.7907628 18.5855791,25.6080943 18.4730026,25.4955179 L14.5537127,21.576228 L14.5537127,21.576228 Z M19.6020568,16.5278839 C19.4894804,16.4151645 19.3068119,16.4151645 19.1940925,16.5278839 L15.2749456,20.4470308 C15.1622262,20.5597502 15.1622262,20.7424187 15.2749456,20.8549951 L19.1940925,24.774285 C19.3068119,24.8868614 19.4894804,24.8868614 19.6020568,24.774285 L23.5213467,20.8549951 C23.6340662,20.7424187 23.6340662,20.5597502 23.5213467,20.4470308 L19.6020568,16.5278839 L19.6020568,16.5278839 Z M13.4245155,20.4470308 L9.50536869,16.5278839 C9.39264923,16.4151645 9.20998076,16.4151645 9.09740435,16.5278839 L5.17811446,20.4470308 C5.065395,20.5597502 5.065395,20.7424187 5.17811446,20.8549951 L9.09740435,24.774285 C9.20998076,24.8868614 9.39264923,24.8868614 9.50536869,24.774285 L13.4245155,20.8549951 C13.537235,20.7424187 13.537235,20.5597502 13.4245155,20.4470308 L13.4245155,20.4470308 Z M14.1457484,8.33083339 C14.2584679,8.44355284 14.4409933,8.44355284 14.5537127,8.33083339 L18.4730026,4.41168654 C18.5855791,4.29896708 18.5855791,4.11629862 18.4730026,4.0037222 L14.5537127,0.0844323099 C14.4409933,-0.0281441033 14.2584679,-0.0281441033 14.1457484,0.0844323099 L10.2264585,4.0037222 C10.1138821,4.11629862 10.1138821,4.29896708 10.2264585,4.41168654 L14.1457484,8.33083339 L14.1457484,8.33083339 Z M15.2749456,10.1824078 L19.1940925,14.1016977 C19.3068119,14.2144172 19.4894804,14.2144172 19.6020568,14.1016977 L23.5213467,10.1824078 C23.6340662,10.0698314 23.6340662,9.88716296 23.5213467,9.7744435 L19.6020568,5.85529665 C19.4894804,5.7425772 19.3068119,5.7425772 19.1940925,5.85529665 L15.2749456,9.7744435 C15.1622262,9.88716296 15.1622262,10.0698314 15.2749456,10.1824078 L15.2749456,10.1824078 Z M9.09740435,14.1016977 C9.20998076,14.2144172 9.39264923,14.2144172 9.50536869,14.1016977 L13.4245155,10.1824078 C13.537235,10.0698314 13.537235,9.88716296 13.4245155,9.7744435 L9.50536869,5.85529665 C9.39264923,5.7425772 9.20998076,5.7425772 9.09740435,5.85529665 L5.17811446,9.7744435 C5.065395,9.88716296 5.065395,10.0698314 5.17811446,10.1824078 L9.09740435,14.1016977 L9.09740435,14.1016977 Z M28.5696908,15.3986867 L24.6505439,11.4793968 C24.5378245,11.3668204 24.355156,11.3668204 24.2425796,11.4793968 L20.3232897,15.3986867 C20.2107133,15.5112631 20.2107133,15.6939316 20.3232897,15.8066511 L24.2425796,19.7257979 C24.355156,19.8385174 24.5378245,19.8385174 24.6505439,19.7257979 L28.5696908,15.8066511 C28.6824102,15.6939316 28.6824102,15.5112631 28.5696908,15.3986867 L28.5696908,15.3986867 Z M14.1457484,11.4793968 L10.2264585,15.3986867 C10.1138821,15.5112631 10.1138821,15.6939316 10.2264585,15.8066511 L14.1457484,19.7257979 C14.2584679,19.8385174 14.4409933,19.8385174 14.5537127,19.7257979 L18.4730026,15.8066511 C18.5855791,15.6939316 18.5855791,15.5112631 18.4730026,15.3986867 L14.5537127,11.4793968 C14.4409933,11.3668204 14.2584679,11.3668204 14.1457484,11.4793968 L14.1457484,11.4793968 Z M8.37617147,15.8066511 L4.45688158,19.7257979 C4.34430517,19.8385174 4.1616367,19.8385174 4.04891725,19.7257979 L0.129770398,15.8066511 C0.0170509395,15.6939316 0.0170509395,15.5112631 0.129770398,15.3986867 L4.04891725,11.4793968 C4.1616367,11.3668204 4.34430517,11.3668204 4.45688158,11.4793968 L8.37617147,15.3986867 C8.48874789,15.5112631 8.48874789,15.6939316 8.37617147,15.8066511 L8.37617147,15.8066511 Z" id="logo"></path>
        </g>
    </g>
</svg>
